X:20
T:Lulley’s Minuet. JClw.20
M:3/4
L:1/8
Q:3/4=60
S:J.Clews MS,Stoke-upon-Tern,Shrops.1832
A:N. Shropshire
Z:Neil Brookes 2006
K:C
e2a2^g2|a2A2B2|c2 dcBd|Tc2 BcA2|ceceBe|ceceBe|ceBeAe|^G2^FGE2|!
e2a2^g2|a2A2B2|c2 dcBd|Tc2 BcA2|edcBAe|fedcBA|edcBAe|edcBAB|cdd4|e6::!
g2c’2b2|c’2c2d2|Te2 fedg|e2de c2|cGEGc_B|ABGAFA|dAFDdc|BcABGB|!
eBGEed|cdBcAc|fcAFfe|decdBd|gdBGgf|egegdg|egdgcg|BgAgGg|feTd4|c6|!
e2a2g2|f2d2c2|B2g2f2|e2c2B2|A2f2e2|d2B2A2|^G2e2d2|Tc2BcA2|!
ae^cAag|fgefdf|gdBGgf|efdece|fcAFfe|decdBd|eB^GEed|ceceBe|!
ceceBe|ceceAe|^Ge^FeEe|dc TB4|A6:|

